X:1
T:Kit O'Connor's Reel.
L:1/8
M:C|
S:Mulvihill - 1st Collection (114)
Z:Andrew Kuntz <AIKUNTZ@AOL.COM> irtrad-l 2000-08-14
K:A
E2 EG A2 (3cBA | eA (3cBA BAFA | E2 EG A2 dB | AF {G}(3FEF dFAF |
(3EFE CE A,2 CE | c2 BA BAGE | CE {F}(3EDE Ac {d}dBc | BABc A3 || f |
eA (3cBA EAdf | eA (3cBA BAFf | ec {d}cBc ac {d}cBc | dB{c}BA Bcdf |
ec (3cBc ac (3cBc | dBBA Bcde | af{g}fe fgaf | ecAc (3BcB AF | E2 |]
